!!!COM: Corelli, Arcangelo
!!!OTL: Sonate a tre [in c]
!!!XEN: Trio Sonata Opus 1, No. 8
!!!OPS: Opus 1
!!!ONM: No. 8
!!!OMV: Movement 4.
!!!YEC: Copyright 1994, Center for Computer Assisted Research in the Humanities
!!!YEM: Rights to all derivative electronic formats reserved.
!!!YEM: Refer to licensing agreement for further details.
!! For the following instrumentation: Violino I & II, Violone/Archlute,
!!    and Organo.
!! Vivace.
**kern	**kern	**kern	**kern
*ICklav	*ICstr	*ICstr	*ICstr
*Iorgan	*Icello	*Ivioln	*Ivioln
*	*Iarchl	*	*
!Organo	!Violone	!Violin 2	!Violin 1
!	! or	!	!
!	!Archlute	!	!
*>[A,A,B,B]	*>[A,A,B,B]	*>[A,A,B,B]	*>[A,A,B,B]
*>A	*>A	*>A	*>A
*clefF4	*clefF4	*clefG2	*clefG2
*k[b-e-]	*k[b-e-]	*k[b-e-]	*k[b-e-]
*c:	*c:	*c:	*c:
*M3/4	*M3/4	*M3/4	*M3/4
*MM120	*MM120	*MM120	*MM120
=1-	=1-	=1-	=1-
2C/	2.r	2.r	8cc\L
.	.	.	8dd\
.	.	.	8ee-\
.	.	.	8ff\J
4r	.	.	4gg\
=2	=2	=2	=2
2C/	2.r	8cc\L	2cc\
.	.	8dd\	.
.	.	8ee-\	.
.	.	8ff\J	.
4r	.	4gg\	4b\
=3	=3	=3	=3
8C\L	8C\L	2cc\	2ee-\
8D\	8D\	.	.
8E-\	8E-\	.	.
8F\J	8F\J	.	.
4G\	4G\	4b\	4dd\
=4	=4	=4	=4
2C/	2C/	2ee-\	2cc\
4GG/	4GG/	4dd\	4b\
=5	=5	=5	=5
2C/	2C/	2ee-\	2aa-\
4BB-/	4BB-/	4dd\	4gg\
=6	=6	=6	=6
2F\	2F\	2cc\	2aa-\
4G\	4G\	4b\	4gg\
=7	=7	=7	=7
2A-\	2A-\	2cc\	(4ff\
.	.	.	4ee-\)
4A-\	4A-\	4dd\	4ff\
=8	=8	=8	=8
2.G\	2.G\	2.b\	2.gg\
=9||	=9||	=9||	=9||
*>B	*>B	*>B	*>B
2G\	2.r	2.r	8dd\L
.	.	.	8cc\
.	.	.	8b-\
.	.	.	8a\J
4r	.	.	4g/
=10	=10	=10	=10
2D\	2.r	8dd\L	2f#/
.	.	8cc\	.
.	.	8b-\	.
.	.	8a\J	.
4r	.	4g/	4g/
=11	=11	=11	=11
8d\L	8d\L	2f#/	2a/
8c\	8c\	.	.
8B-\	8B-\	.	.
8A\J	8A\J	.	.
4G\	4G\	4g/	4b-\
=12	=12	=12	=12
2D\	2D\	2a/	2f#/
4G\	4G\	4b-\	4g/
=13	=13	=13	=13
2d\	2d\	2a/	2f#/
4G\	4G\	4g/	4g/
=14	=14	=14	=14
2G\	2G\	2.r	(8gg\L
.	.	.	8ff\
.	.	.	8ee-\
.	.	.	8dd\J
4r	4r	.	4cc\)
=15	=15	=15	=15
2A-\	2A-\	(8ee-\L	2.cc\
.	.	8dd\	.
.	.	8cc\	.
.	.	8b-\J	.
4r	4r	4a-/)	.
=16	=16	=16	=16
2F\	2F\	2a-/	(8ff\L
.	.	.	8ee-\
.	.	.	8dd\
.	.	.	8cc\J
4r	4r	4r	4b-\)
=17	=17	=17	=17
2G\	2G\	(8dd\L	2.b-\
.	.	8cc\	.
.	.	8b-\	.
.	.	8a-\J	.
4r	4r	4g/)	.
=18	=18	=18	=18
2C/	2C/	2g/	(8ee-\L
.	.	.	8dd\
.	.	.	8cc\
.	.	.	8b-\J
4D\	4D\	4r	4a-/)
=19	=19	=19	=19
4.E-\	4.E-\	4.b-\	4.g/
8F\	8F\	8a-/	8a-/
4G\	4G\	4g/	4b-\
=20	=20	=20	=20
4A-\	4A-\	4e-/	4cc\
4B-\	4B-\	4.e-/	4.f/
4BB-/	4BB-/	.	.
.	.	8d/	8e-/
=21	=21	=21	=21
2.E-\	2.E-\	2.e-/	2.e-/
=22	=22	=22	=22
2.E-\	2.E-\	2g/	(8e-/L
.	.	.	8f/
.	.	.	8g/
.	.	.	8a-/J
.	.	4r	4b-\)
=23	=23	=23	=23
2.D\	2.D\	(8B-/L	2b-\
.	.	8c/	.
.	.	8d/	.
.	.	8e/J	.
.	.	4f/)	4r
=24	=24	=24	=24
2.F\	2.F\	2f/	(8f/L
.	.	.	8g/
.	.	.	8a-/
.	.	.	8b-/J
.	.	4r	4cc\)
=25	=25	=25	=25
2.E-\	2.E-\	(8c/L	2cc\
.	.	8d/	.
.	.	8e-/	.
.	.	8f/J	.
.	.	4g/)	4r
=26	=26	=26	=26
2BB/	2BB/	2g/	(8gg\L
.	.	.	8ff\
.	.	.	8ee-\
.	.	.	8dd\J
4C/	4C/	4r	4cc\)
=27	=27	=27	=27
2GG/	2GG/	(8gg\L	2b\
.	.	8ff\	.
.	.	8ee-\	.
.	.	8dd\J	.
4r	4r	4cc\)	4cc\
=28	=28	=28	=28
8G\L	8G\L	2b\	2dd\
8F\	8F\	.	.
8E-\	8E-\	.	.
8D\J	8D\J	.	.
4C/	4C/	4cc\	4ee-\
=29	=29	=29	=29
2GG/	2GG/	2dd\	2b\
4C/	4C/	4ee-\	4cc\
=30	=30	=30	=30
2G\	2G\	2dd\	2b\
4C/	4C/	4cc\	4cc\
=31	=31	=31	=31
2.r	2.r	2.r	(8gg\L
.	.	.	8ff\
.	.	.	8ee-\
.	.	.	8dd\J
.	.	.	4cc\)
=32	=32	=32	=32
2.r	2.r	(8gg\L	(2b\
.	.	8ff\	.
.	.	8ee-\	.
.	.	8dd\J	.
.	.	4cc\)	4cc\)
=33	=33	=33	=33
8G\L	8G\L	(2b\	(2dd\
8F\	8F\	.	.
8E-\	8E-\	.	.
8D\J	8D\J	.	.
4C/	4C/	4cc\)	4ee-\)
=34	=34	=34	=34
2GG/	2GG/	(2dd\	(2b\
4C/	4C/	4ee-\)	4cc\)
=35	=35	=35	=35
2G\	2G\	(2dd\	(2b\
4C/	4C/	4cc\)	4cc\)
=36	=36	=36	=36
2.r	2.r	2b\	2g/
.	.	4cc\	4a-/
=37	=37	=37	=37
2G\	2G\	2b\	2d/
4C/	4C/	4cc\	4c/
=38	=38	=38	=38
2.r	2.r	2b\	2g/
.	.	4cc\	4a-/
=39	=39	=39	=39
2GG/	2GG/	2b\	2d/
4C/	4C/	4cc\	4c/
==	==	==	==
*-	*-	*-	*-
!!!CDT: 1653/2/17/-1713/1/8
!!!OCY: Italia
!!!ODE: Queen Christina Alexandra of Sweden
!!!ODT: 1681//
!!!OPC: Roma; Rome
!!!AGN: trio sonata
!!!AST: baroque, chamber
!!!AMT: simple triple
!!!YOR1: J. Joachim & F. Chrysander (eds.) Les Oeuvre de Arcangelo Corelli
!!!YOR2: London: Augener & Co. 1871
!!!YOY: 1871
!!!AIN: archl cello organ violn
!!!EEV: 1.1
!!!RDT: 1993 August 31
!!!YER: 1994 December 14
!!!EMD: 1996 July 9
!!!YEN: United States of America
!!!EFL: 4/4
!!!ENC: Frances Bennion & Steven Rasmussen
!!!EED: W.B. Hewlett
!!!VTS: 3534776813
